X:1
%
T:Roscommon Air
M:3/4
L:1/8
S:Stanford/Petrie (1905), No. 489
Z:AK/Fiddler’s Companion
K:D
A | d>cde f>e | e2 ee e2 | fefa af/e/ | d2 ed B2 |
d>cde fe | dcBA d>c | BAFE AF | E2 EE E2 ||

